launcher/android/assets/skins/day/svg/mapMultiStageStartP2.svg

<svg enable-background="new 0 0 258.00 258.00" height="258" viewBox="0 0 258 258" width="258" xmlns="http://www.w3.org/2000/svg" xmlns:xlink="http://www.w3.org/1999/xlink"><linearGradient id="a" gradientTransform="matrix(0 -1 1 0 -.581108 1.581108)" gradientUnits="objectBoundingBox" x1=".5" x2="1.66222" y1="1.08111" y2="1.08111"><stop offset="0" stop-color="#abc4ab"/><stop offset=".771552" stop-color="#d5e1d5"/><stop offset="1" stop-color="#fff"/></linearGradient><path d="m44 4.00006h170c22.091 0 40 17.90844 40 39.99984v170.0001c0 22.091-17.909 40-40 40h-170c-22.0914 0-40-17.909-40-40v-170.0001c0-22.0914 17.9086-39.99984 40-39.99984z" fill="url(#a)" stroke="#000" stroke-linecap="square" stroke-linejoin="bevel" stroke-width="8"/><g fill="#d56416" stroke-linejoin="round" stroke-width=".2"><path d="m53.5247 86.3328c-1.2084-3.5416-1.6249-6.8471-1.4861-11.0139.1389-4.1666.8333-9.1943 3.9305-12.9582 3.0972-3.764 8.5972-6.264 13.2813-6.6077 4.684-.3438 8.552 1.4687 11.2153 4.8542 2.6631 3.3854 4.1215 8.3438 5.2048 12.5729s1.7917 7.7291 2.7083 11.1041c.9167 3.375 2.0417 6.625 3.3959 9.9584 1.3541 3.3334 2.9375 6.7504 4.4271 9.7534 1.4895 3.004 2.8855 5.594 3.5834 7.278.6978 1.684.6978 2.462-2.08 4.795-2.7777 2.333-8.3333 6.222-11.486 8.319-3.1528 2.098-3.9029 2.403-5.2779 1.834-1.375-.57-3.375-2.014-6.1111-5.389s-6.2083-8.681-9.0138-12.903-4.9445-7.361-7.014-10.8193c-2.0694-3.4583-4.0694-7.2361-5.2777-10.7779z"/><path d="m89.0247 130.972c2.8055-2.236 8.0277-6.431 10.9305-8.459 2.9028-2.027 3.4858-1.888 4.2358-1.222.75.667 1.667 1.861 3.098 3.764 1.43 1.903 3.375 4.514 4.333 7.306.958 2.791.93 5.764-.076 8.215-1.007 2.451-2.994 4.382-5.757 5.368-2.764.986-6.306 1.028-8.6185.424-2.3125-.605-3.3958-1.855-4.8958-3.688s-3.4167-4.25-4.625-5.833c-1.2084-1.584-1.7084-2.334-1.764-2.847-.0555-.514.3334-.792 3.139-3.028z"/><path d="m198.69 116.225c-1.431-3.458-3.3-6.215-6.156-9.253-2.855-3.038-6.696-6.355-11.508-7.1372-4.811-.7819-10.592.9722-14.337 3.8062-3.745 2.835-5.453 6.75-5.218 11.051s2.413 8.988 4.392 12.879c1.979 3.892 3.757 6.988 5.297 10.128s2.841 6.324 4.025 9.721c1.184 3.398 2.25 7.009 3.115 10.249.864 3.239 1.526 6.106 2.113 7.831.588 1.726 1.102 2.31 4.729 2.228 3.626-.081 10.366-.828 14.119-1.335 3.753-.506 4.518-.772 5.174-2.108.657-1.335 1.206-3.741 1.032-8.082-.173-4.341-1.068-10.618-1.749-15.642-.681-5.023-1.147-8.793-1.876-12.757-.729-3.963-1.721-8.121-3.152-11.579z"/><path d="m201.501 173.19c-3.584.173-10.275.471-13.794.864-3.519.394-3.866.883-3.989 1.879s-.023 2.498.159 4.872.446 5.619 1.569 8.348c1.124 2.729 3.107 4.943 5.482 6.119 2.374 1.177 5.141 1.315 7.868.231 2.726-1.084 5.414-3.391 6.752-5.372 1.338-1.98 1.326-3.634 1.242-6.002-.084-2.367-.24-5.448-.378-7.434-.137-1.987-.257-2.881-.555-3.304-.297-.422-.773-.374-4.356-.201z"/></g></svg>

﻿<?xml version="1.0" encoding="utf-8"?>
<!DOCTYPE svg PUBLIC "-//W3C//DTD SVG 1.1//EN" "http://www.w3.org/Graphics/SVG/1.1/DTD/svg11.dtd">
<svg xmlns="http://www.w3.org/2000/svg" xmlns:xlink="http://www.w3.org/1999/xlink" version="1.1" baseProfile="full" width="258" height="258" viewBox="0 0 258.00 258.00" enable-background="new 0 0 258.00 258.00" xml:space="preserve">
	<linearGradient id="SVGID_Fill1_" gradientUnits="objectBoundingBox" x1="0.5" y1="1.08111" x2="1.66222" y2="1.08111" gradientTransform="rotate(-90.000000 0.500000 1.081108)">
		<stop offset="0" stop-color="#ABC4AB" stop-opacity="1"/>
		<stop offset="0.771552" stop-color="#D5E1D5" stop-opacity="1"/>
		<stop offset="1" stop-color="#FFFFFF" stop-opacity="1"/>
	</linearGradient>
	<path fill="url(#SVGID_Fill1_)" stroke-width="8" stroke-linecap="square" stroke-linejoin="bevel" stroke="#000000" stroke-opacity="1" d="M 44,4.00006L 214,4.00006C 236.091,4.00006 254,21.9085 254,43.9999L 254,214C 254,236.091 236.091,254 214,254L 44,254C 21.9086,254 4,236.091 4,214L 4,43.9999C 4,21.9085 21.9086,4.00006 44,4.00006 Z "/>
	<g>
		<g>
			<path fill="#D56416" fill-opacity="1" stroke-width="0.2" stroke-linejoin="round" d="M 53.5247,86.3328C 52.3163,82.7912 51.8998,79.4857 52.0386,75.3189C 52.1775,71.1523 52.8719,66.1246 55.9691,62.3607C 59.0663,58.5967 64.5663,56.0967 69.2504,55.753C 73.9344,55.4092 77.8024,57.2217 80.4657,60.6072C 83.1288,63.9926 84.5872,68.951 85.6705,73.1801C 86.7538,77.4092 87.4622,80.9092 88.3788,84.2842C 89.2955,87.6592 90.4205,90.9092 91.7747,94.2426C 93.1288,97.576 94.7122,100.993 96.2018,103.996C 97.6913,107 99.0873,109.59 99.7852,111.274C 100.483,112.958 100.483,113.736 97.7052,116.069C 94.9275,118.402 89.3719,122.291 86.2192,124.388C 83.0664,126.486 82.3163,126.791 80.9413,126.222C 79.5663,125.652 77.5663,124.208 74.8302,120.833C 72.0941,117.458 68.6219,112.152 65.8164,107.93C 63.0109,103.708 60.8719,100.569 58.8024,97.1107C 56.733,93.6524 54.733,89.8746 53.5247,86.3328 Z "/>
			<path fill="#D56416" fill-opacity="1" stroke-width="0.2" stroke-linejoin="round" d="M 89.0247,130.972C 91.8302,128.736 97.0524,124.541 99.9552,122.513C 102.858,120.486 103.441,120.625 104.191,121.291C 104.941,121.958 105.858,123.152 107.289,125.055C 108.719,126.958 110.664,129.569 111.622,132.361C 112.58,135.152 112.552,138.125 111.546,140.576C 110.539,143.027 108.552,144.958 105.789,145.944C 103.025,146.93 99.483,146.972 97.1705,146.368C 94.858,145.763 93.7747,144.513 92.2747,142.68C 90.7747,140.847 88.858,138.43 87.6497,136.847C 86.4413,135.263 85.9413,134.513 85.8857,134C 85.8302,133.486 86.2191,133.208 89.0247,130.972 Z "/>
		</g>
		<g>
			<path fill="#D56416" fill-opacity="1" stroke-width="0.2" stroke-linejoin="round" d="M 198.69,116.225C 197.259,112.767 195.39,110.01 192.534,106.972C 189.679,103.934 185.838,100.617 181.026,99.8348C 176.215,99.0529 170.434,100.807 166.689,103.641C 162.944,106.476 161.236,110.391 161.471,114.692C 161.706,118.993 163.884,123.68 165.863,127.571C 167.842,131.463 169.62,134.559 171.16,137.699C 172.7,140.839 174.001,144.023 175.185,147.42C 176.369,150.818 177.435,154.429 178.3,157.669C 179.164,160.908 179.826,163.775 180.413,165.5C 181.001,167.226 181.515,167.81 185.142,167.728C 188.768,167.647 195.508,166.9 199.261,166.393C 203.014,165.887 203.779,165.621 204.435,164.285C 205.092,162.95 205.641,160.544 205.467,156.203C 205.294,151.862 204.399,145.585 203.718,140.561C 203.037,135.538 202.571,131.768 201.842,127.804C 201.113,123.841 200.121,119.683 198.69,116.225 Z "/>
			<path fill="#D56416" fill-opacity="1" stroke-width="0.2" stroke-linejoin="round" d="M 201.501,173.19C 197.917,173.363 191.226,173.661 187.707,174.054C 184.188,174.448 183.841,174.937 183.718,175.933C 183.595,176.929 183.695,178.431 183.877,180.805C 184.059,183.179 184.323,186.424 185.446,189.153C 186.57,191.882 188.553,194.096 190.928,195.272C 193.302,196.449 196.069,196.587 198.796,195.503C 201.522,194.419 204.21,192.112 205.548,190.131C 206.886,188.151 206.874,186.497 206.79,184.129C 206.706,181.762 206.55,178.681 206.412,176.695C 206.275,174.708 206.155,173.814 205.857,173.391C 205.56,172.969 205.084,173.017 201.501,173.19 Z "/>
		</g>
	</g>
</svg>
